assets/icons/qvision/mic_external_off.svg

<svg width="24" height="24" viewBox="0 0 24 24" fill="none" xmlns="http://www.w3.org/2000/svg">
<g clip-path="url(#clip0_147_3575)">
<path d="M21.1899 21.19L2.80989 2.81L1.38989 4.22L5.16989 8H3.99989L4.99989 18H5.99989C5.99989 20.21 7.78989 22 9.99989 22C12.2099 22 13.9999 20.21 13.9999 18V16.83L19.7799 22.61L21.1899 21.19ZM11.9999 18C11.9999 19.1 11.0999 20 9.99989 20C8.89989 20 7.99989 19.1 7.99989 18H8.99989L9.55989 12.39L11.9999 14.83V18ZM13.9999 6V11.17L11.9999 9.17V6C11.9999 3.79 13.7899 2 15.9999 2C18.2099 2 19.9999 3.79 19.9999 6V17.17L17.9999 15.17V6C17.9999 4.9 17.0999 4 15.9999 4C14.8999 4 13.9999 4.9 13.9999 6ZM9.99989 5C9.99989 5.62 9.79989 6.18 9.47989 6.66L5.32989 2.51C5.80989 2.19 6.37989 2 6.99989 2C8.65989 2 9.99989 3.34 9.99989 5Z" fill="#323232"/>
</g>
<defs>
<clipPath id="clip0_147_3575">
<rect width="24" height="24" fill="white"/>
</clipPath>
</defs>
</svg>

<svg xmlns="http://www.w3.org/2000/svg" height="24" viewBox="0 0 24 24" width="24"><path d="M0 0h24v24H0z" fill="none"/><path d="M21.19 21.19L2.81 2.81 1.39 4.22 5.17 8H4l1 10h1c0 2.21 1.79 4 4 4s4-1.79 4-4v-1.17l5.78 5.78 1.41-1.42zM12 18c0 1.1-.9 2-2 2s-2-.9-2-2h1l.56-5.61L12 14.83V18zm2-12v5.17l-2-2V6c0-2.21 1.79-4 4-4s4 1.79 4 4v11.17l-2-2V6c0-1.1-.9-2-2-2s-2 .9-2 2zm-4-1c0 .62-.2 1.18-.52 1.66L5.33 2.51C5.81 2.19 6.38 2 7 2c1.66 0 3 1.34 3 3z"/></svg>
